resources/svg/float-center.svg

<svg xmlns="http://www.w3.org/2000/svg" viewBox="0 0 15 15" fill="currentColor"><path d="M5.5 0C4.67157 0 4 0.671573 4 1.5V5.5C4 6.32843 4.67157 7 5.5 7H9.5C10.3284 7 11 6.32843 11 5.5V1.5C11 0.671573 10.3284 0 9.5 0H5.5Z" fill="black"/><path d="M0 2H2V1H0V2Z" fill="black"/><path d="M13 2H15V1H13V2Z" fill="black"/><path d="M0 6H2V5H0V6Z" fill="black"/><path d="M13 6H15V5H13V6Z" fill="black"/><path d="M0 10H15V9H0V10Z" fill="black"/><path d="M0 14H15V13H0V14Z" fill="black"/></svg>

<svg xmlns="http://www.w3.org/2000/svg" viewBox="0 0 15 15" fill="currentColor"><path d="M5.5 0A1.5 1.5 0 004 1.5v4A1.5 1.5 0 005.5 7h4A1.5 1.5 0 0011 5.5v-4A1.5 1.5 0 009.5 0h-4zM0 2h2V1H0v1zm13 0h2V1h-2v1zM0 6h2V5H0v1zm13 0h2V5h-2v1zM0 10h15V9H0v1zm0 4h15v-1H0v1z" fill="currentColor"/></svg>
